src/lib/packages/icons/src/assets/line/folder-upload.svg

<svg width="24" height="24" viewBox="0 0 24 24" fill="none" xmlns="http://www.w3.org/2000/svg">
<path d="M18 6.25H13.311L10.531 3.47C10.39 3.329 10.2 3.25 10.001 3.25H6.00098C3.58298 3.25 2.25098 4.582 2.25098 7V17C2.25098 19.418 3.58298 20.75 6.00098 20.75H18.001C20.419 20.75 21.751 19.418 21.751 17V10C21.75 7.582 20.418 6.25 18 6.25ZM20.25 17C20.25 18.577 19.577 19.25 18 19.25H6C4.423 19.25 3.75 18.577 3.75 17V7C3.75 5.423 4.423 4.75 6 4.75H9.68896L12.469 7.53C12.61 7.671 12.8 7.75 12.999 7.75H17.999C19.576 7.75 20.249 8.423 20.249 10V17H20.25ZM12.03 12.47C12.323 12.763 12.323 13.238 12.03 13.531C11.884 13.677 11.692 13.751 11.5 13.751C11.308 13.751 11.116 13.678 10.97 13.531L10.25 12.811V16C10.25 16.414 9.914 16.75 9.5 16.75C9.086 16.75 8.75 16.414 8.75 16V12.811L8.03003 13.531C7.73703 13.824 7.26199 13.824 6.96899 13.531C6.67599 13.238 6.67599 12.763 6.96899 12.47L8.96899 10.47C9.03799 10.401 9.12089 10.346 9.21289 10.308C9.39589 10.232 9.60289 10.232 9.78589 10.308C9.87789 10.346 9.96103 10.401 10.03 10.47L12.03 12.47Z" fill="currentColor"/>
</svg>

<svg xmlns="http://www.w3.org/2000/svg" width="24" height="24" fill="none"><path fill="currentColor" d="M18 6.25h-4.689l-2.78-2.78a.749.749 0 0 0-.53-.22h-4c-2.418 0-3.75 1.332-3.75 3.75v10c0 2.418 1.332 3.75 3.75 3.75h12c2.418 0 3.75-1.332 3.75-3.75v-7C21.75 7.582 20.418 6.25 18 6.25ZM20.25 17c0 1.577-.673 2.25-2.25 2.25H6c-1.577 0-2.25-.673-2.25-2.25V7c0-1.577.673-2.25 2.25-2.25h3.689l2.78 2.78c.141.141.331.22.53.22h5c1.577 0 2.25.673 2.25 2.25v7h.001Zm-8.22-4.53a.75.75 0 0 1-1.06 1.061l-.72-.72V16a.75.75 0 0 1-1.5 0v-3.189l-.72.72a.75.75 0 0 1-1.061-1.061l2-2a.749.749 0 0 1 .817-.162.75.75 0 0 1 .244.162l2 2Z"/></svg>
